X: 15555
T: Gloomy Winter
R: strathspey
M: 4/4
K: Gminor
G2GA G>FD2|B>ABd c>BA2|G2dG G>FD2|1 C2D<F FGG2:|2 C2D<F FGGA||
|:B>dfB A>Bc2|B>AGB A<dD2|D>GF>G DGAc|1 B>G B/A/G/<F/ DGGA:|2 B>G B/A/G/<F/ DGG2||

